X:1
T:Mazourka #5
T:Mazurka
T:from 8 Mazurkas, Op. 23 #5
T:Wieniawski Josef
C:Wieniawski Josef
%%score { ( 1 5 ) | ( 2 3 4 ) }
L:1/8
Q:1/4=90
M:3/4
K:A
V:1 treble nm="Piano" snm="Pno."
V:5 treble 
V:2 bass 
V:3 bass 
V:4 bass 
V:1
"^Lento""^à Madame la Baronne Adolphe de Haaren" z2 [A,F]2 [A,F]2 | z2 [A,F]2 [A,F]2 | %2
 z2 [A,F]2 [A,F]2 | z2 [G,F]4 | x2 ^E3 F | !fermata!F6 ||!pp! c2 A3 F | c2 B3 F | ^E3 F GA | %9
 G2 F3 C | c2 A3 F | c2 B3 F | ^E3 F GA | F6 | c2 A3 F | c2 B3 F | ^E3 F GA | G2 F3 C | c2 A3 F | %19
 c2 B3 F | ^E3 F GA | F6 | e2 d3 F | d2 c3 F | e2 d3 F | c3 c ed | c2 B3 G | B2 A3 F | c2 B3 ^E | %29
 F6 |"_poco agitato" e2 d3 F | d2 c3 F | e2 d3 F | c3[Q:1/4=70]"^rit." c fd | %34
[Q:1/4=90]"^a tempo" c2 B3 G | B2 A3 F | c2 B3 ^E | F6 || z2 [A,F]2 [A,F]2 | z2 [A,F]2 [A,F]2 | %40
 z2 [A,F]2 [A,F]2 | z2 [G,F]4 | x2 ^E3 F | !fermata!F6 ||!pp! Cc A3 F | c2 B3 F | ^E3 F GA | %47
 G2 F3 C | Cc A3 F | c2 B3 F | ^E3 F GA | F6 | Cc A3 F | c2 B3 F | ^E3 F GA | G2 F3 C | Cc A3 F | %57
 c2 B3 F | ^E3 F GA | F6 | Fe d3 F | d2 c3 F | Fe d3 F | c3 c ed | Cc B3 G | B2 A3 F | Cc B3 ^E | %67
 F6 | Fe d3 F | d2 c3 F | Fe d3 F | c3"^rit." c fd |"^a tempo" Cc B3 G | B2 A3 F | Cc B3 ^E | F6 || %76
 z2 [A,F]2 [A,F]2 | z2 [A,F]2 [A,F]2 | z2 [A,F]2 [A,F]2 | z2 [G,F]4 | x2 ^E3 F | !fermata!F6 |] %82
V:2
"^sempre pp e con gran tristezza" !arpeggio!!>!F,,2 x2 x2 | x6 | x6 |"^rall." x6 | x6 | x6 || %6
 .F,,2 [C,A,C]4 | .G,,2 [C,B,C]4 | .C,,2 [C,B,C]4 | .F,,2 [C,A,C]4 | .F,,2 [C,A,C]4 | %11
 .G,,2 [C,B,C]4 | .C,,2 [C,B,C]4 | .F,,2 [C,A,C]4 | .F,,2 [C,A,C]4 | .G,,2 !>![C,B,D]4 | %16
 .C,,2 [C,B,C]4 | .F,,2 [C,A,C]4 | .A,,2 [C,A,C]4 | .G,,2 !>![C,B,D]4 | .C,,2 [C,B,C]4 | %21
 .F,,2 [C,A,C]4 | B,,2 [F,B,F]4 | A,,2 [F,CF]4 | B,,2 [F,B,F]4 | A,,2 [F,CF]4 | C,,2 [C,^E,C]4 | %27
 C,,2 [C,F,C]4 | z2 (G,2 B,2) | F,,2 [C,A,C]4 | B,,2 [F,B,F]4 | A,,2 [F,CF]4 | B,,2 [F,DF]4 | %33
 A,,2 [F,CF]4 | C,,2 [^E,C]4 | C,,2 [F,C]4 | x2 (G,2 (B,2) | [F,,B,]2) [C,A,]4 || %38
 !arpeggio!!>!F,,2 x2 x2 | x6 | x6 |"^rall." x6 | x6 | x6 || .F,,2 [C,A,C]4 | .G,,2 [C,B,C]4 | %46
 .C,,2 [C,B,C]4 | .F,,2 [C,A,C]4 | .F,,2 [C,A,C]4 | .G,,2 [C,B,C]4 | .C,,2 [C,B,C]4 | %51
 .F,,2 [C,A,C]4 | .F,,2 [C,A,C]4 | .G,,2 !>![C,B,D]4 | .C,,2 [C,B,C]4 | .F,,2 [C,A,C]4 | %56
 .A,,2 [C,A,C]4 | .G,,2 !>![C,B,D]4 | .C,,2 [C,B,C]4 | .F,,2 [C,A,C]4 | B,,2 [F,B,F]4 | %61
 A,,2 [F,CF]4 | B,,2 [F,B,F]4 | A,,2 [F,CF]4 | C,,2 [C,^E,C]4 | C,,2 [C,F,C]4 | x2 (G,2 B,2) | %67
 F,,2 [C,A,C]4 | B,,2 [F,B,F]4 | A,,2 [F,CF]4 | B,,2 [F,DF]4 | A,,2 [F,CF]4 | C,,2 [^E,C]4 | %73
 C,,2 [F,C]4 | x2 (G,2 (B,2) | [F,,B,]2) [C,A,]4 || !arpeggio!!>!F,,2 x2 x2 | x6 | x6 | %79
"^rall." x6 | x6 | x6 |] %82
V:3
 D,6- | D,4 C,^B,, | ^B,,2 C,4 | x2 x4 | z2 x4 | F,,6 || x6 | x6 | x6 | x6 | x6 | x6 | x6 | x6 | %14
 x6 | x6 | x6 | x6 | x6 | x6 | x6 | x6 | x6 | x6 | x6 | x6 | x6 | x6 | C,,2 [C,C]4 | x6 | x6 | x6 | %32
 x6 | x6 | x6 | x6 | C,,2 C,4 | x6 || D,6- | D,4 C,^B,, | ^B,,2 C,4 | x2 x4 | z2 x4 | F,,6 || x6 | %45
 x6 | x6 | x6 | x6 | x6 | x6 | x6 | x6 | x6 | x6 | x6 | x6 | x6 | x6 | x6 | x6 | x6 | x6 | x6 | %64
 x6 | x6 | C,,2 [C,G,C]4 | x6 | x6 | x6 | x6 | x6 | x6 | x6 | C,,2 C,4 | x6 || D,6- | D,4 C,^B,, | %78
 ^B,,2 C,4 | x2 x4 | x2 x4 | F,,,2 x2 x2 |] %82
V:4
 x6 | x6 | x6 | C,,2- [C,,C,]4 | C,,2- [C,,C,]4 | C,2 C,4 || x6 | x6 | x6 | x6 | x6 | x6 | x6 | %13
 x6 | x6 | x6 | x6 | x6 | x6 | x6 | x6 | x6 | x6 | x6 | x6 | x6 | x6 | x6 | x6 | x6 | x6 | x6 | %32
 x6 | x6 | x6 | x6 | x6 | x6 || x6 | x6 | x6 | C,,2- [C,,C,]4 | C,,2- [C,,C,]4 | C,2 C,4 || x6 | %45
 x6 | x6 | x6 | x6 | x6 | x6 | x6 | x6 | x6 | x6 | x6 | x6 | x6 | x6 | x6 | x6 | x6 | x6 | x6 | %64
 x6 | x6 | x6 | x6 | x6 | x6 | x6 | x6 | x6 | x6 | x6 | x6 || x6 | x6 | x6 | C,,2- [C,,C,]4 | %80
 C,,2- [C,,C,]4 | C,2 C,4 |] %82
V:5
 x6 | x6 | x6 | x6 | z2 B,4- | B,2 ^A,4 || x6 | x6 | x6 | x6 | x6 | x6 | x6 | x6 | x6 | x6 | x6 | %17
 x6 | x6 | x6 | x6 | x6 | x6 | x6 | x6 | x6 | x6 | x6 | x6 | x6 | x6 | x6 | x6 | x6 | x6 | x6 | %36
 x6 | x6 || x6 | x6 | x6 | x6 | z2 B,4- | B,2 ^A,4 || x6 | x6 | x6 | x6 | x6 | x6 | x6 | x6 | x6 | %53
 x6 | x6 | x6 | x6 | x6 | x6 | x6 | x6 | x6 | x6 | x6 | x6 | x6 | x6 | x6 | x6 | x6 | x6 | x6 | %72
 x6 | x6 | x6 | x6 || x6 | x6 | x6 | x6 | z2 B,4- | B,2 ^A,4 |] %82

